icons-dark/mimetypes/64/text-x-tex.svg

<?xml version="1.0" encoding="UTF-8" standalone="no"?>
<svg width="64" version="1.1" xmlns="http://www.w3.org/2000/svg" viewBox="0 0 64 64" height="64" xmlns:xlink="http://www.w3.org/1999/xlink" xmlns:inkscape="http://www.inkscape.org/namespaces/inkscape">
 <defs id="defs4">
  <linearGradient inkscape:collect="always" xlink:href="#linearGradient4300-1" id="linearGradient4306" y1="61" y2="3" x2="0" gradientUnits="userSpaceOnUse"/>
  <linearGradient inkscape:collect="always" xlink:href="#linearGradient4410" id="linearGradient4427" y1="31" x1="54" y2="17" x2="40" gradientUnits="userSpaceOnUse" gradientTransform="matrix(1 0 0 -1 -14 78)"/>
  <linearGradient inkscape:collect="always" id="linearGradient4410">
   <stop style="stop-color:#383e51" id="stop4412"/>
   <stop offset="1" style="stop-color:#655c6f;stop-opacity:0" id="stop4414"/>
  </linearGradient>
  <linearGradient inkscape:collect="always" xlink:href="#linearGradient4351-2" id="linearGradient4357" y1="61" y2="47" x2="0" gradientUnits="userSpaceOnUse"/>
  <linearGradient inkscape:collect="always" id="linearGradient4351-2">
   <stop style="stop-color:#d3bdd7" id="stop4353-8"/>
   <stop offset="1" style="stop-color:#e8d9eb" id="stop4355-6"/>
  </linearGradient>
  <linearGradient inkscape:collect="always" id="linearGradient4300-1">
   <stop style="stop-color:#8e44ad" id="stop4302-0"/>
   <stop offset="1" style="stop-color:#9b59b6" id="stop4304-6"/>
  </linearGradient>
  <linearGradient id="linearGradient4073">
   <stop style="stop-color:#fcf4f9" id="stop4075"/>
   <stop offset="1" style="stop-color:#fdebff" id="stop4077"/>
  </linearGradient>
 </defs>
 <metadata id="metadata84"/>
 <path style="fill:url(#linearGradient4306)" id="rect3500" d="M 10 3 L 10 61 L 40 61 L 54 47 L 54 17 L 54 3 L 40 3 L 10 3 z "/>
 <rect width="30" x="10" y="60" height="1" style="fill:#2e3132;fill-opacity:0.294118" id="rect4169"/>
 <rect width="44" x="10" y="3" height="1" style="fill:#ffffff;fill-opacity:0.409836" id="rect4236"/>
 <path style="fill:#e8d9eb" id="rect4274" d="M 21 21 L 21 22 L 21 23 L 21 24 L 43 24 L 43 23 L 43 22 L 43 21 L 21 21 z M 29.46875 26 L 29.5 26.875 L 35.5 35 L 29 43 L 29 44 L 43 44 L 43 39 L 42 39 C 42 40 42.259312 40.620032 41.40625 41.21875 C 40.47102 41.87512 39.239383 42 38.15625 42 L 33 42 L 38 35 L 33 27 L 35.9375 27 C 38.021594 27 40.987855 26.807586 41.8125 29.3125 C 41.95347 29.740691 41.96451 30.550399 42 31 L 43 31 L 43 26 L 29.46875 26 z M 21 27 L 21 28 L 28 28 L 28 27 L 21 27 z M 21 30 L 21 31 L 30 31 L 30 30 L 21 30 z M 21 33 L 21 34 L 32 34 L 32 33 L 21 33 z M 21 36 L 21 37 L 32 37 L 32 36 L 21 36 z M 21 39 L 21 40 L 30 40 L 30 39 L 21 39 z M 21 42 L 21 43 L 27 43 L 27 42 L 21 42 z "/>
 <path inkscape:connector-curvature="0" style="fill:url(#linearGradient4357);fill-rule:evenodd" id="path4314" d="M 54,47 40,61 40,47 Z"/>
 <path inkscape:connector-curvature="0" style="fill:url(#linearGradient4427);opacity:0.2;fill-rule:evenodd" id="path4320" d="M 26,61 40,47 40,61 Z"/>
</svg>

<svg width="64" xmlns="http://www.w3.org/2000/svg" viewBox="0 0 64 64" height="64">
 <defs>
  <linearGradient id="a" y1="3" y2="61" x2="0" gradientUnits="userSpaceOnUse" gradientTransform="matrix(1 0 0-1 0 64)">
   <stop stop-color="#8e44ad"/>
   <stop offset="1" stop-color="#9b59b6"/>
  </linearGradient>
  <linearGradient id="b" y1="61" y2="47" x2="0" gradientUnits="userSpaceOnUse" gradientTransform="matrix(1 0 0-1 0 64)">
   <stop stop-color="#d3bdd7"/>
   <stop offset="1" stop-color="#e8d9eb"/>
  </linearGradient>
  <linearGradient id="c" y1="17" x1="40" y2="31" x2="54" gradientUnits="userSpaceOnUse">
   <stop stop-color="#383e51"/>
   <stop offset="1" stop-color="#655c6f" stop-opacity="0"/>
  </linearGradient>
 </defs>
 <path fill="url(#a)" d="m10 61v-58h30l14 14v44h-14z"/>
 <g transform="scale(1-1)">
  <rect width="30" x="10" y="-4" fill="#ffffff" height="1" fill-opacity=".412"/>
  <rect width="44" x="10" y="-61" fill="#2e3132" height="1" fill-opacity=".294"/>
 </g>
 <g fill-rule="evenodd">
  <path fill="url(#b)" d="m54 17l-14-14v14z"/>
  <path opacity=".2" fill="url(#c)" d="m40 17l14 14v-14z"/>
 </g>
 <path fill="#e8d9eb" d="m21 21v3h22v-3zm8.469 5l.031.875 6 8.125-6.5 8v1h14v-5h-1c0 1 .259 1.62-.594 2.219-.935.656-2.167.781-3.25.781h-5.156l5-7-5-8h2.938c2.084 0 5.05-.192 5.875 2.313.141.428.152 1.238.188 1.688h1v-5zm-8.469 1v1h7v-1zm0 3v1h9v-1zm0 3v1h11v-1zm0 3v1h11v-1zm0 3v1h9v-1zm0 3v1h6v-1z"/>
</svg>
